public/icons/picto-temps-S.svg

<?xml version="1.0" encoding="UTF-8"?>
<svg width="18px" height="18px" viewBox="0 0 18 18" version="1.1" xmlns="http://www.w3.org/2000/svg" xmlns:xlink="http://www.w3.org/1999/xlink">
    <!-- Generator: sketchtool 51.2 (57519) - http://www.bohemiancoding.com/sketch -->
    <title>6513DBE7-CDE8-408D-A2E9-8F8108888A5F</title>
    <desc>Created with sketchtool.</desc>
    <defs></defs>
    <g id="Portail-pro" stroke="none" stroke-width="1" fill="none" fill-rule="evenodd">
        <g id="Passculture-Pro-compta" transform="translate(-1137.000000, -634.000000)">
            <g id="PICTOS/picto-temps-S" transform="translate(1137.000000, 634.000000)">
                <rect id="Background" x="0" y="0" width="18" height="18"></rect>
                <path d="M9,18 C4.02943725,18 0,13.9705627 0,9 C0,4.02943725 4.02943725,0 9,0 C13.9705627,0 18,4.02943725 18,9 C18,13.9705627 13.9705627,18 9,18 Z M12.2413587,6 C11.6487235,6 11.1085693,6.15124317 10.6208799,6.45373404 C10.1331906,6.75622492 9.62390235,7.23464718 9.093,7.8890152 C9.03126717,7.9630946 8.98188164,7.96926779 8.94484195,7.90753495 C8.50036556,7.29020664 8.04972265,6.81795756 7.5928997,6.49077356 C7.13607674,6.16358955 6.58666278,6 5.94464134,6 C5.38904585,6 4.88593082,6.129637 4.43528116,6.38891489 C3.98463149,6.64819279 3.63275962,7.00006465 3.37965502,7.44454103 C3.12655041,7.88901742 3,8.38287266 3,8.92612158 C3,9.4693705 3.129637,9.96939893 3.38891489,10.4262219 C3.64819279,10.8830448 3.99697805,11.2410899 4.43528116,11.5003678 C4.87358426,11.7596457 5.35817972,11.8892827 5.88908207,11.8892827 C6.50641038,11.8892827 7.04965115,11.7195199 7.51882067,11.3799894 C7.98799019,11.0404588 8.45097948,10.5682097 8.90780243,9.96322796 C8.9571887,9.9138417 9.00040103,9.9138417 9.03744073,9.96322796 C9.50661025,10.5929028 9.98503252,11.0713251 10.4727219,11.3985091 C10.9604113,11.7256931 11.5314314,11.8892827 12.1857994,11.8892827 C12.7784346,11.8892827 13.3000692,11.7596457 13.7507188,11.5003678 C14.2013685,11.2410899 14.5532404,10.889218 14.806345,10.4447416 C15.0594496,10.0002653 15.186,9.50641001 15.186,8.96316109 C15.186,8.40756561 15.0594496,7.90445058 14.806345,7.45380091 C14.5532404,7.00315124 14.2044551,6.64819279 13.7599787,6.38891489 C13.3155023,6.129637 12.8093007,6 12.2413587,6 Z M5.88908207,10.8336565 C5.38287285,10.8336565 4.95383611,10.6515474 4.60195897,10.2873237 C4.25008183,9.9231 4.0741459,9.4693705 4.0741459,8.92612158 C4.0741459,8.38287266 4.24699523,7.93531635 4.59269909,7.58343921 C4.93840294,7.23156207 5.38904585,7.05562614 5.94464134,7.05562614 C6.42615742,7.05562614 6.8305014,7.19760952 7.15768541,7.48158055 C7.48486942,7.76555157 7.86452064,8.22236767 8.29665046,8.85204255 C8.30899702,8.90142882 8.30899702,8.94464115 8.29665046,8.98168085 C7.85217407,9.59900917 7.45708987,10.0619985 7.11138602,10.3706626 C6.76568216,10.6793268 6.35825159,10.8336565 5.88908207,10.8336565 Z M12.1857994,10.8336565 C11.6672436,10.8336565 11.2289471,10.6885866 10.8708967,10.3984422 C10.5128462,10.1082979 10.117762,9.64839525 9.68563222,9.01872036 C9.64859252,8.9693341 9.64859252,8.91994858 9.68563222,8.87056231 C10.117762,8.253234 10.5313658,7.79641789 10.9264559,7.5001003 C11.321546,7.20378271 11.7660158,7.05562614 12.2598784,7.05562614 C12.8031273,7.05562614 13.2475971,7.23464867 13.5933009,7.59269909 C13.9390048,7.95074951 14.1118541,8.40756561 14.1118541,8.96316109 C14.1118541,9.50641001 13.9359182,9.95396633 13.584041,10.3058435 C13.2321639,10.6577206 12.766088,10.8336565 12.1857994,10.8336565 Z" id="Combined-Shape" fill="#0066FF"></path>
            </g>
        </g>
    </g>
</svg>

<svg width="18" height="18" viewBox="0 0 18 18" xmlns="http://www.w3.org/2000/svg"><g fill="none"><path d="M0 0h18v18H0z"/><path d="M9 18A9 9 0 119 0a9 9 0 010 18zm3.241-12a3.01 3.01 0 00-1.62.454c-.488.302-.997.78-1.528 1.435-.062.074-.111.08-.148.019C8.5 7.29 8.05 6.818 7.593 6.49 7.136 6.164 6.587 6 5.945 6c-.556 0-1.06.13-1.51.389A2.8 2.8 0 003.38 7.445 2.94 2.94 0 003 8.926c0 .543.13 1.043.389 1.5.26.457.608.815 1.046 1.074.439.26.923.39 1.454.39.617 0 1.16-.17 1.63-.51.469-.34.932-.812 1.389-1.417.05-.05.092-.05.13 0 .469.63.947 1.108 1.435 1.436.487.327 1.058.49 1.713.49.592 0 1.114-.13 1.565-.389a2.79 2.79 0 001.055-1.055c.253-.445.38-.939.38-1.482 0-.555-.127-1.059-.38-1.51A2.796 2.796 0 0013.76 6.39 2.958 2.958 0 0012.241 6zM5.89 10.834a1.72 1.72 0 01-1.287-.547c-.352-.364-.528-.818-.528-1.36 0-.544.173-.992.519-1.344.345-.351.796-.527 1.352-.527.481 0 .886.142 1.213.426.327.284.707.74 1.139 1.37a.23.23 0 010 .13c-.445.617-.84 1.08-1.186 1.389a1.776 1.776 0 01-1.222.463zm6.297 0c-.519 0-.957-.145-1.315-.436-.358-.29-.753-.75-1.185-1.38-.037-.049-.037-.098 0-.147.432-.618.845-1.075 1.24-1.37.396-.297.84-.445 1.334-.445.543 0 .988.179 1.333.537.346.358.519.815.519 1.37 0 .543-.176.991-.528 1.343-.352.352-.818.528-1.398.528z" fill="#06F"/></g></svg>
